icon.svg

<svg width="32" height="32" viewBox="0 0 32 32" fill="none" xmlns="http://www.w3.org/2000/svg">
<path d="M30.7942 22.0826C34.1535 13.912 30.2532 4.56517 22.0826 1.20584C13.912 -2.1535 4.56517 1.74679 1.20584 9.91738C-2.1535 18.088 1.74679 27.4348 9.91738 30.7942C18.088 34.1535 27.4348 30.2532 30.7942 22.0826Z" fill="#16A478"/>
<path fill-rule="evenodd" clip-rule="evenodd" d="M10.9878 4.23929L10.3281 3.96053C10.1902 3.89746 10.0413 3.86222 9.88978 3.85681C9.73828 3.85141 9.58721 3.87595 9.44522 3.92904C9.30323 3.98212 9.17311 4.0627 9.06231 4.16617C8.95152 4.26963 8.86223 4.39395 8.79957 4.53198L8.38144 5.5262C7.75865 7.08827 7.57146 8.79008 7.83982 10.4502C8.10818 12.1103 8.82204 13.6664 9.90529 14.9527C9.90529 14.9527 10.1236 15.2082 10.4674 15.5892L10.6904 15.8122C10.3798 15.8044 10.0691 15.8214 9.76127 15.8633C8.76682 15.9803 7.82101 16.3582 7.01977 16.9588C6.21853 17.5593 5.59037 18.361 5.199 19.2827L4.98994 19.7891C4.86572 20.1028 4.87019 20.4529 5.00239 20.7634C5.13458 21.0739 5.38384 21.3197 5.69611 21.4477L6.20716 21.666C7.24729 22.1294 8.39663 22.2915 9.52435 22.1338C10.6521 21.9761 11.7129 21.505 12.586 20.774C12.586 20.774 14.7835 19.0597 15.9357 14.3441C17.1575 10.3812 15.0436 5.9815 10.9878 4.23929ZM27.8479 11.1802L28.5122 11.445C28.6574 11.4958 28.7908 11.5751 28.9047 11.6785C29.0186 11.7818 29.1106 11.9069 29.1751 12.0464C29.2397 12.186 29.2756 12.3371 29.2806 12.4908C29.2856 12.6444 29.2598 12.7976 29.2045 12.941L28.8003 13.9399C28.1442 15.4884 27.0788 16.829 25.7185 17.8177C24.3581 18.8065 22.7542 19.4061 21.0788 19.5521C21.0788 19.5521 20.7443 19.6079 20.2286 19.6079H19.9127C20.144 19.822 20.3569 20.0551 20.5492 20.3048C21.1731 21.0878 21.5793 22.0216 21.727 23.0119C21.8746 24.0022 21.7584 25.0139 21.3901 25.9449L21.181 26.4559C21.0469 26.7658 20.7964 27.0105 20.4836 27.1374C20.1707 27.2643 19.8205 27.2631 19.5085 27.1342L18.9881 26.9298C17.9251 26.527 16.9959 25.835 16.3055 24.932C15.615 24.0289 15.1909 22.9508 15.0809 21.8193C15.0809 21.8193 14.7232 19.0782 17.2227 14.8969C19.1415 11.2035 23.7409 9.56346 27.8479 11.1802Z" fill="#FECA0D"/>
<path fill-rule="evenodd" clip-rule="evenodd" d="M10.4536 15.5845L10.6208 15.7564L10.6766 15.8075C11.564 15.71 12.7951 15.4033 12.9995 14.502C12.9995 14.502 6.38843 11.7192 8.24678 5.80029C7.63129 7.4702 7.51214 9.28254 7.90372 11.0187C8.29529 12.7548 9.18086 14.3405 10.4536 15.5845ZM20.2331 19.6079H19.9915L19.9172 19.6125C19.3551 18.9064 18.6953 17.8332 19.1832 17.048C19.1832 17.048 25.8454 19.724 28.684 14.2047C27.9465 15.8244 26.7563 17.1963 25.2569 18.155C23.7575 19.1136 22.0128 19.6182 20.2331 19.6079ZM15.0715 21.6567V21.8007C15.1155 22.2754 15.2153 22.7432 15.3689 23.1945V23.2177C15.4481 23.4469 15.5428 23.6704 15.6523 23.8867C15.6885 23.9685 15.7304 24.0477 15.7777 24.1237C15.9042 24.3564 16.0471 24.58 16.2051 24.7927C16.2609 24.8716 16.3212 24.9459 16.3816 25.0202L16.3817 25.0203C16.559 25.2395 16.7515 25.4459 16.9578 25.6382C17.0646 25.7358 17.1715 25.8287 17.283 25.917C17.5042 26.0998 17.7386 26.266 17.9845 26.4141C18.3032 26.6203 18.639 26.799 18.988 26.9484L19.5084 27.1528L19.6245 27.1899H19.657H19.7406H19.7778H19.8893H20.1588H20.261C14.3886 25.0714 16.0146 17.7588 16.3445 16.5044C15.0576 19.2362 15.0437 21.1271 15.0715 21.6567ZM12.6512 20.7043L12.6837 20.6718C13.074 20.314 14.3934 18.9621 15.5224 16.1049C14.8673 17.2338 10.8811 23.5754 5.21777 20.9505C5.22514 20.9634 5.23615 20.9756 5.24676 20.9873C5.26293 21.0051 5.27817 21.022 5.27817 21.0388L5.30605 21.0667L5.35715 21.1224L5.38503 21.1503L5.45471 21.22L5.54298 21.2897H5.57086L5.64519 21.3361H5.67772L5.78457 21.3872L6.29562 21.6056C6.63208 21.7508 6.98021 21.8674 7.3363 21.954C7.61644 22.0185 7.90042 22.0651 8.1865 22.0934L8.60927 22.1213C8.89154 22.1314 9.17417 22.1206 9.45483 22.0888L9.74287 22.0516C10.0048 22.0103 10.2639 21.9529 10.5187 21.8797L10.7743 21.7961C11.0034 21.7204 11.2269 21.6288 11.4433 21.522C11.8779 21.3094 12.2838 21.0424 12.6512 20.7275V20.7043Z" fill="#F0B103"/>
</svg>

<svg width="32" height="32" fill="none" xmlns="http://www.w3.org/2000/svg"><path d="M30.794 22.083c3.36-8.171-.54-17.518-8.711-20.877-8.171-3.36-17.518.54-20.877 8.711-3.36 8.171.54 17.518 8.711 20.877 8.171 3.36 17.518-.54 20.877-8.711z" fill="#16A478"/><path fill-rule="evenodd" clip-rule="evenodd" d="M10.988 4.24l-.66-.28a1.153 1.153 0 00-1.528.572l-.419.994a9.292 9.292 0 001.524 9.427s.219.255.562.636l.223.223c-.31-.008-.62.01-.929.051a5.677 5.677 0 00-4.562 3.42l-.21.506a1.282 1.282 0 00.707 1.659l.511.218a6.082 6.082 0 006.379-.892s2.197-1.714 3.35-6.43c1.221-3.963-.892-8.363-4.948-10.105zm16.86 6.94l.664.265a1.147 1.147 0 01.692 1.496l-.404.999a9.26 9.26 0 01-7.721 5.612s-.335.056-.85.056h-.316c.231.214.444.447.636.697a5.691 5.691 0 01.841 5.64l-.209.51a1.287 1.287 0 01-1.672.68l-.52-.205a6.096 6.096 0 01-3.908-5.11s-.358-2.742 2.142-6.923c1.919-3.694 6.518-5.334 10.625-3.717z" fill="#FECA0D"/><path fill-rule="evenodd" clip-rule="evenodd" d="M10.454 15.585l.167.171.056.051c.887-.097 2.118-.404 2.322-1.305 0 0-6.61-2.783-4.752-8.702a9.222 9.222 0 002.207 9.785zm9.78 4.023h-.243l-.074.005c-.562-.707-1.222-1.78-.734-2.565 0 0 6.662 2.676 9.501-2.843a9.227 9.227 0 01-8.45 5.403zm-5.163 2.049v.144c.045.474.144.942.298 1.394v.023c.08.229.174.452.283.669.037.081.078.16.126.237a5.637 5.637 0 00.604.896c.177.22.37.426.576.618.107.098.214.19.325.279.221.183.456.349.701.497.32.206.655.385 1.004.534l.52.205.117.037h.636c-5.872-2.119-4.246-9.431-3.916-10.686-1.287 2.732-1.301 4.623-1.273 5.153zm-2.42-.953l.033-.032c.39-.358 1.71-1.71 2.838-4.567-.655 1.129-4.64 7.47-10.304 4.846a.223.223 0 00.029.036c.016.018.031.035.031.052l.028.028.051.055.028.028.07.07.088.07h.028l.074.046h.033l.107.051.51.219c.337.145.685.261 1.041.348.28.064.564.111.85.14l.423.027c.283.01.565 0 .846-.032l.288-.037c.262-.042.52-.1.776-.172l.255-.084a5.715 5.715 0 001.877-1.069v-.023z" fill="#F0B103"/></svg>
